icons/1_Primary/Hetzner.svg

<svg width="1024" height="1024" fill="none" xmlns="http://www.w3.org/2000/svg"><g clip-path="url(#a)"><path d="M512 1024c282.77 0 512-229.23 512-512S794.77 0 512 0 0 229.23 0 512s229.23 512 512 512Z" fill="#BA6561"/><path d="M822.2 523.2c6.1-1.1 11.9-3.6 16.9-7.4 4.5-4.8 6.8-11.2 6.3-17.8 0-5.3-1.5-10.6-4.2-15.1-4.1-7-11.5-11.5-19.7-11.9h-4.1l-9.5-.3h-43c-2.6 0-3.7 1.1-3.7 3.7v75.3c0 2.6 1.1 3.7 3.7 3.7h11.2c2.6 0 3.7-1.1 3.7-3.7v-24.9h13.7c3 .2 5.9 1.4 8.1 3.4l21.7 21.8c2 2 4.6 3.2 7.4 3.4h16.6c2.6 0 3.2-1.5 1.4-3.4l-26.5-26.8Zm-2.8-16.1h-39.6v-19h39.6c4 .5 7 3.9 7 8v2.9c0 4.2-3 7.6-7 8.1Zm-75.6 28.7h-61.5v-15.5h49.1c2.6 0 3.7-1.1 3.7-3.7v-9c0-2.6-1.1-3.7-3.7-3.7h-49.1v-15.5h61.6c2.6 0 3.7-1.1 3.7-3.7v-10.3c0-2.6-1.1-3.7-3.7-3.7h-76.8c-2.6 0-3.7 1.1-3.7 3.7v75.4c0 2.6 1.1 3.7 3.7 3.7h76.8c2.6 0 3.7-1.1 3.7-3.7v-10.2c0-2.7-1.3-3.8-3.8-3.8Zm-94-38c.1-5.3-1.4-10.4-4.2-14.9-4.1-7.2-11.7-11.8-20-12.3h-56.4c-2.6 0-3.7 1.1-3.7 3.7v75.3c0 2.6 1.1 3.7 3.7 3.7h12.1c2.6 0 3.7-1 3.7-3.7v-61.4h32.7c7 0 13.7 4.6 13.7 11.6v49.9c0 2.6 1.1 3.7 3.7 3.7h11c2.6 0 3.7-1.1 3.7-3.7v-51.9Zm-101.5 37.5h-53.1l53.2-46.7c2.2-1.7 3.5-4.1 3.7-6.9v-7.4c0-2.6-1.1-3.7-3.7-3.7h-77c-2.6 0-3.7 1.1-3.7 3.7v10.3c0 2.6 1.1 3.7 3.7 3.7h49.3l-49.5 46.4c-2.1 1.7-3.5 4.1-3.7 6.9v8.1c0 2.6 1.1 3.7 3.7 3.7h76.9c2.6 0 3.7-1.1 3.7-3.7V539c.2-2.6-.9-3.7-3.5-3.7Zm-97.9-64.7h-76.8c-2.6 0-3.7 1-3.7 3.7v10.3c0 2.6 1 3.7 3.7 3.7h29v61.4c0 2.6 1.1 3.7 3.7 3.7h12.3c2.6 0 3.7-1.1 3.7-3.7v-61.4h28.2c2.6 0 3.7-1.1 3.7-3.7v-10.2c-.1-2.6-1.2-3.8-3.8-3.8Zm-97.8 65.2h-61.4v-15.5h49.1c2.6 0 3.7-1.1 3.7-3.7v-9c0-2.6-1-3.7-3.7-3.7h-49.1v-15.5h61.4c2.6 0 3.7-1.1 3.7-3.7v-10.3c0-2.6-1.1-3.7-3.7-3.7H276c-2.6 0-3.7 1.1-3.7 3.7v75.4c0 2.6 1.1 3.7 3.7 3.7h76.6c2.6 0 3.7-1.1 3.7-3.7v-10.2c0-2.7-1.1-3.8-3.7-3.8Zm-97.8-65.2h-11.6c-2.6 0-3.7 1.1-3.7 3.7v29.3h-46.1v-29.3c0-2.6-1.1-3.7-3.7-3.7H178c-2.6 0-3.7 1.1-3.7 3.7v75.4c0 2.6 1.1 3.7 3.7 3.7h11.7c2.6 0 3.7-1 3.7-3.7v-29.8h46.2v29.8c0 2.6 1.1 3.7 3.7 3.7h11.6c2.6 0 3.7-1.1 3.7-3.7v-75.4c-.1-2.5-1.2-3.7-3.8-3.7Z" fill="#fff"/></g><defs><clipPath id="a"><path fill="#fff" d="M0 0h1024v1024H0z"/></clipPath></defs></svg>

<svg width="1024" height="1024" viewBox="0 0 1024 1024" fill="none" xmlns="http://www.w3.org/2000/svg">
<g clip-path="url(#clip0_2_2391)">
<path d="M512 1024C794.77 1024 1024 794.77 1024 512C1024 229.23 794.77 0 512 0C229.23 0 0 229.23 0 512C0 794.77 229.23 1024 512 1024Z" fill="#BA6561"/>
<path d="M822.2 523.2C828.3 522.1 834.1 519.6 839.1 515.8C843.6 511 845.9 504.6 845.4 498C845.4 492.7 843.9 487.4 841.2 482.9C837.1 475.9 829.7 471.4 821.5 471H817.4L807.9 470.7H764.9C762.3 470.7 761.2 471.8 761.2 474.4V549.7C761.2 552.3 762.3 553.4 764.9 553.4H776.1C778.7 553.4 779.8 552.3 779.8 549.7V524.8H793.5C796.5 525 799.4 526.2 801.6 528.2L823.3 550C825.3 552 827.9 553.2 830.7 553.4H847.3C849.9 553.4 850.5 551.9 848.7 550L822.2 523.2ZM819.4 507.1H779.8V488.1H819.4C823.4 488.6 826.4 492 826.4 496.1V499C826.4 503.2 823.4 506.6 819.4 507.1ZM743.8 535.8H682.3V520.3H731.4C734 520.3 735.1 519.2 735.1 516.6V507.6C735.1 505 734 503.9 731.4 503.9H682.3V488.4H743.9C746.5 488.4 747.6 487.3 747.6 484.7V474.4C747.6 471.8 746.5 470.7 743.9 470.7H667.1C664.5 470.7 663.4 471.8 663.4 474.4V549.8C663.4 552.4 664.5 553.5 667.1 553.5H743.9C746.5 553.5 747.6 552.4 747.6 549.8V539.6C747.6 536.9 746.3 535.8 743.8 535.8ZM649.8 497.8C649.9 492.5 648.4 487.4 645.6 482.9C641.5 475.7 633.9 471.1 625.6 470.6H569.2C566.6 470.6 565.5 471.7 565.5 474.3V549.6C565.5 552.2 566.6 553.3 569.2 553.3H581.3C583.9 553.3 585 552.3 585 549.6V488.2H617.7C624.7 488.2 631.4 492.8 631.4 499.8V549.7C631.4 552.3 632.5 553.4 635.1 553.4H646.1C648.7 553.4 649.8 552.3 649.8 549.7V497.8ZM548.3 535.3H495.2L548.4 488.6C550.6 486.9 551.9 484.5 552.1 481.7V474.3C552.1 471.7 551 470.6 548.4 470.6H471.4C468.8 470.6 467.7 471.7 467.7 474.3V484.6C467.7 487.2 468.8 488.3 471.4 488.3H520.7L471.2 534.7C469.1 536.4 467.7 538.8 467.5 541.6V549.7C467.5 552.3 468.6 553.4 471.2 553.4H548.1C550.7 553.4 551.8 552.3 551.8 549.7V539C552 536.4 550.9 535.3 548.3 535.3ZM450.4 470.6H373.6C371 470.6 369.9 471.6 369.9 474.3V484.6C369.9 487.2 370.9 488.3 373.6 488.3H402.6V549.7C402.6 552.3 403.7 553.4 406.3 553.4H418.6C421.2 553.4 422.3 552.3 422.3 549.7V488.3H450.5C453.1 488.3 454.2 487.2 454.2 484.6V474.4C454.1 471.8 453 470.6 450.4 470.6ZM352.6 535.8H291.2V520.3H340.3C342.9 520.3 344 519.2 344 516.6V507.6C344 505 343 503.9 340.3 503.9H291.2V488.4H352.6C355.2 488.4 356.3 487.3 356.3 484.7V474.4C356.3 471.8 355.2 470.7 352.6 470.7H276C273.4 470.7 272.3 471.8 272.3 474.4V549.8C272.3 552.4 273.4 553.5 276 553.5H352.6C355.2 553.5 356.3 552.4 356.3 549.8V539.6C356.3 536.9 355.2 535.8 352.6 535.8ZM254.8 470.6H243.2C240.6 470.6 239.5 471.7 239.5 474.3V503.6H193.4V474.3C193.4 471.7 192.3 470.6 189.7 470.6H178C175.4 470.6 174.3 471.7 174.3 474.3V549.7C174.3 552.3 175.4 553.4 178 553.4H189.7C192.3 553.4 193.4 552.4 193.4 549.7V519.9H239.6V549.7C239.6 552.3 240.7 553.4 243.3 553.4H254.9C257.5 553.4 258.6 552.3 258.6 549.7V474.3C258.5 471.8 257.4 470.6 254.8 470.6Z" fill="white"/>
</g>
<defs>
<clipPath id="clip0_2_2391">
<rect width="1024" height="1024" fill="white"/>
</clipPath>
</defs>
</svg>
